!!!SOCIAL_FUNCTION:	songs of the drum-presentation ceremony
!!!PDT:	1913
!!!OTL: No_64_The_Ravens_Are_Singing.krn
!!!REG: Great_Lakes
!!!LANG: Non-Tone
!!!LING_GROUP: Algonquin
**kern	**kern
*staff2	*staff1
=1-	=1-
*clefF4	*clefF4
*k[f#c#g#d#a#]	*k[f#c#g#d#a#]
*M2/4	*M2/4
12GG#^/	16d#\LK
.	8.d#\J
12r	.
12GG#/	.
12GG#^/	16B\LK
.	8.B\J
12r	.
12GG#/	.
=2	=2
12GG#^/	2d#\
12r	.
12GG#/	.
12GG#^/	.
12r	.
12GG#/	.
=3	=3
2r	16c#\LK
.	8.B\J
.	16G#\LK
.	8.G#\J
=4	=4
2r	2G#\
=5	=5
2r	16G#\LK
.	8.G#\J
.	16F#\LK
.	8.F#\J
=6	=6
2r	2G#\
=7||	=7||
*M3/4	*M3/4
2.r	16G#\LK
.	[8.G#\J
.	8G#\L]
.	8G#\J
.	8G#\L
.	8G#\J
=8||	=8||
*M2/4	*M2/4
2r	2A#\
=9	=9
2r	16A#\LK
.	8.A#\J
.	16G#\LK
.	8.G#\J
=10	=10
2r	2G#\
=11	=11
2r	[12G#\L
.	12G#\]
.	12D#\J
.	16D#\LK
.	8.D#\J
=12	=12
2r	2G#\
=13	=13
2r	16G#\LK
.	8.G#\J
.	16D#\LK
.	8.D#\J
=14	=14
2r	2D#\
=15	=15
2r	16D#/LK
.	8.C#/J
.	16BB/LK
.	8.BB/J
=16	=16
2r	2D#\
=17	=17
2r	16D#/LK
.	8.C#/J
.	16BB/LK
.	8.BB/J
=18	=18
2r	12BB/L
.	12AA#/
.	12GG#/J
.	4GG#/
=19	=19
2r	4..GG#/
.	16GG#/
=20	=20
2r	2GG#/
==	==
*-	*-
